X:93
T:Reels simple chords 68
M:3/4
L:1/8
K:Bm
[eE,G,B,]f ed cd | ef [gG,B,D]e dB | AG EF [G2G,2B,2D2] | AG BG AG | [EE,G,B,]F GA BA |
A2 [eE,G,B,]f ed | cd ef [gG,B,D]e | dB AG EF | [G2G,2B,2D2] AG BG |
AG [DG,B,D]E GA | BA A2 [eE,G,B,]f | ed cd ef | [gG,B,D]e dB AG |
EF [G2G,2B,2D2] AG | BG AG [EE,G,B,]F | GA BA A2 | [eE,G,B,]f ed cd |
ef [gG,B,D]e dB | AG EF [G2G,2B,2D2] | AG BG AG | [DG,B,D]E GA BA |
A2 [eA,=CE]a ab | ag ef [gG,B,D]a | bg ag ef | [gG,B,D]a ge d2 |
ef [gE,G,B,]d ed | cd e2 [eA,=CE]a | ab ag ef | [gG,B,D]a bg ag |
ef [gG,B,D]f ge | d2 ef [gE,G,B,]f | gB BA A2 | [eA,=CE]a ab ag |
ef [gG,B,D]a bg | ag ef [gG,B,D]a | ge d2 ef | [gE,G,B,]d ed cd |
e2 [eA,=CE]a ab | ag ef [gG,B,D]a | bg ag ef | [gG,B,D]f ge d2 |
ef [gE,G,B,]f gB | BA A2 |


